!!!OTL: Bu hoscht du hin das Zautle lei bes i dir hon gaben ?
!!!ARE: Europa, Mitteleuropa, Deutschland, Gottschee
!!!SCT: D0085
!!!YEM: Copyright 1995, estate of Helmut Schaffrath.
**kern
*ICvox
*Ivox
*M4/4
*k[b-]
*F:
{4c
=1
4.cc
8cc
4b-
4cc
=2
2a
4a}
{4cc
=3
4.b-
8b-
4cc
4b-
=4
2a
4cc
4r}
=5
{4.b-
8b-
4ff
4dd
=6
4.cc
8cc
4cc
4ff}
=7
{4.ee
8dd
4cc
4b-
=8
2a
4r}
==
!!!AGN: Liebes - Lied
!! Unterstimme in parallelen Terzen, ergaenzt die Skala zur Heptatonik
!!    (Ionisch) ; erste Zeile rhythmisch korrigiert (Pause)
!!    Inzipit = Variante zum Lied; DVA-Signatur 85a
!!!ONB: ESAC (Essen Associative Code) Database: DVA
!!!AMT: simple quadruple
!!!AIN: vox
!!!EED: Helmut Schaffrath
!!!EEV: 1.0
*-
